X:530
T:Mrs. Galvin's
R:jig
S:Caitl\'in Nic Gabhann on Youtube
H:Also played in A #483
Z:id:hn-jig-530
M:6/8
L:1/8
K:G
B2A BGG | dGG BAG | ~A3 ABA | GB/c/d gdc |
B2A BGG | dGG BAG | ~A3 ABA |1 AGF G2A :|2 AGF GBd ||
|: g2f fed | B2d def | g2e fed | Bee e2f |
gag fed | Bdd def | g3 gdB |1 AGG GBd :|2 AGG G2c ||

